X: 153
M: 6/8
L: 1/8
K: Em
(EFE) BGE | eGE GAB | (B/^c/d)(B A)dG | FED AFD |\
(EFE) BGE | eGE GAB | (B/c/d)B AFD | E3 e2 :|
f |\
(e/f/g)(f e)de | Bef gfe | (d/^c/B/c/d) AdG | FED AFD |\
(e/f/g)(f e)de | Bef gfe | d^cd AFD | E3 e2 ||
f |\
(e/f/g)(f e)de | Bef gfe | (d/^c/B/c/d) AdG | FED AFD |\
EGE FAF | GBG AB^c | d^cd AFD | E3 e2 |]


